img/skills-icon/css3.svg

<svg viewBox="0 0 544 767" xmlns="http://www.w3.org/2000/svg"><path d="M127.94 0h82.42c-.01 11.48.02 22.96-.02 34.44-15.97.04-31.95-.01-47.93.02-.02 11.48 0 22.96-.01 34.43 15.98.05 31.96-.01 47.94.03.03 11.48.03 22.95 0 34.43-27.46.02-54.93.03-82.39 0-.03-34.45-.01-68.9-.01-103.35zm98.91 0h82.42c-.01 9.99.02 19.97-.02 29.96-15.98.02-31.96-.02-47.94.02 0 1.99-.01 3.97-.01 5.96 15.98.04 31.97-.02 47.95.03.03 22.96.03 45.93 0 68.89-27.46.01-54.93.02-82.39 0 .02-10.5-.13-20.99.08-31.49 15.95.06 31.91.01 47.87.03-.02-2-.02-3.99-.03-5.99-15.97-.01-31.95.02-47.92-.02-.03-22.46-.01-44.93-.01-67.39zm98.91 0h82.42c-.01 9.99.02 19.97-.02 29.96-15.98.02-31.96-.01-47.94.01 0 1.99-.01 3.98-.01 5.97 15.99.04 31.97-.02 47.95.03.02 22.96.04 45.93-.01 68.89-27.46.01-54.92.01-82.38 0-.08-10.45.05-20.9-.06-31.36 15.95-.2 31.92-.12 47.88-.03.09-2.02.12-4.04.13-6.06-15.98-.01-31.97.03-47.95-.01-.04-22.47-.02-44.93-.01-67.4z"/><path fill="#2754e8" d="M0 150.74c181.19-.01 362.38 0 543.58-.01-16.45 184.84-33.05 369.66-49.47 554.5-74.16 20.76-148.42 41.18-222.62 61.77h-.13c-73.92-20.65-147.9-41.11-221.87-61.6C32.95 520.76 16.65 336.1 0 151.48v-.74m101.24 113.4c1.95 22.62 4.14 45.23 6.1 67.85 54.68.27 109.37.04 164.06.11.15-22.37-.04-44.75.09-67.12.16 22.4.1 44.81.03 67.21 31.97-.01 63.93-.01 95.89 0-2.09 23.18-4.12 46.38-6.2 69.57-82.58-.01-165.16.11-247.74.08 1.99 22.64 4.08 45.27 6.06 67.9 78.59-.04 157.18.07 235.76.13-2.53 29.32-5.35 58.63-7.78 87.96-24.41 7.05-49.08 13.27-73.57 20.06-2.96 1.28-5.9-.37-8.78-1.04-23.16-6.21-46.29-12.55-69.48-18.69-1.66-18.09-3.19-36.18-4.88-54.26-22.73 0-45.47-.03-68.2.01 3.2 35.58 6.31 71.17 9.56 106.74 46.42 12.75 92.76 25.76 139.16 38.53.36-23.41-.14-46.82.22-70.23-.09 23.48.2 46.97-.11 70.45 46.58-12.87 93.15-25.74 139.7-38.72 10.31-115.53 20.6-231.06 31.01-346.58-113.63-.14-227.27.23-340.9.04z"/><path fill="#f6f6f6" d="M101.24 264.14c113.63.19 227.27-.18 340.9-.04-10.41 115.52-20.7 231.05-31.01 346.58-46.55 12.98-93.12 25.85-139.7 38.72.31-23.48.02-46.97.11-70.45-.36 23.41.14 46.82-.22 70.23-46.4-12.77-92.74-25.78-139.16-38.53-3.25-35.57-6.36-71.16-9.56-106.74 22.73-.04 45.47-.01 68.2-.01 1.69 18.08 3.22 36.17 4.88 54.26 23.19 6.14 46.32 12.48 69.48 18.69 2.88.67 5.82 2.32 8.78 1.04 24.49-6.79 49.16-13.01 73.57-20.06 2.43-29.33 5.25-58.64 7.78-87.96-78.58-.06-157.17-.17-235.76-.13-1.98-22.63-4.07-45.26-6.06-67.9 82.58.03 165.16-.09 247.74-.08 2.08-23.19 4.11-46.39 6.2-69.57-31.96-.01-63.92-.01-95.89 0 .07-22.4.13-44.81-.03-67.21-.13 22.37.06 44.75-.09 67.12-54.69-.07-109.38.16-164.06-.11-1.96-22.62-4.15-45.23-6.1-67.85z"/></svg>

<?xml version="1.0" encoding="UTF-8" ?>
<!DOCTYPE svg PUBLIC "-//W3C//DTD SVG 1.1//EN" "http://www.w3.org/Graphics/SVG/1.1/DTD/svg11.dtd">
<svg viewBox="0 0 544 767" version="1.1" xmlns="http://www.w3.org/2000/svg">
<g id="#000000ff">
<path fill="#000000" opacity="1.00" d=" M 127.94 0.00 L 210.36 0.00 C 210.35 11.48 210.38 22.96 210.34 34.44 C 194.37 34.48 178.39 34.43 162.41 34.46 C 162.39 45.94 162.41 57.42 162.40 68.89 C 178.38 68.94 194.36 68.88 210.34 68.92 C 210.37 80.40 210.37 91.87 210.34 103.35 C 182.88 103.37 155.41 103.38 127.95 103.35 C 127.92 68.90 127.94 34.45 127.94 0.00 Z" />
<path fill="#000000" opacity="1.00" d=" M 226.85 0.00 L 309.27 0.00 C 309.26 9.99 309.29 19.97 309.25 29.96 C 293.27 29.98 277.29 29.94 261.31 29.98 C 261.31 31.97 261.30 33.95 261.30 35.94 C 277.28 35.98 293.27 35.92 309.25 35.97 C 309.28 58.93 309.28 81.90 309.25 104.86 C 281.79 104.87 254.32 104.88 226.86 104.86 C 226.88 94.36 226.73 83.87 226.94 73.37 C 242.89 73.43 258.85 73.38 274.81 73.40 C 274.79 71.40 274.79 69.41 274.78 67.41 C 258.81 67.40 242.83 67.43 226.86 67.39 C 226.83 44.93 226.85 22.46 226.85 0.00 Z" />
<path fill="#000000" opacity="1.00" d=" M 325.76 0.00 L 408.18 0.00 C 408.17 9.99 408.20 19.97 408.16 29.96 C 392.18 29.98 376.20 29.95 360.22 29.97 C 360.22 31.96 360.21 33.95 360.21 35.94 C 376.20 35.98 392.18 35.92 408.16 35.97 C 408.18 58.93 408.20 81.90 408.15 104.86 C 380.69 104.87 353.23 104.87 325.77 104.86 C 325.69 94.41 325.82 83.96 325.71 73.50 C 341.66 73.30 357.63 73.38 373.59 73.47 C 373.68 71.45 373.71 69.43 373.72 67.41 C 357.74 67.40 341.75 67.44 325.77 67.40 C 325.73 44.93 325.75 22.47 325.76 0.00 Z" />
</g>
<g id="#2754e8ff">
<path fill="#2754e8" opacity="1.00" d=" M 0.00 150.74 C 181.19 150.73 362.38 150.74 543.58 150.73 C 527.13 335.57 510.53 520.39 494.11 705.23 C 419.95 725.99 345.69 746.41 271.49 767.00 L 271.36 767.00 C 197.44 746.35 123.46 725.89 49.49 705.40 C 32.95 520.76 16.65 336.10 0.00 151.48 L 0.00 150.74 M 101.24 264.14 C 103.19 286.76 105.38 309.37 107.34 331.99 C 162.02 332.26 216.71 332.03 271.40 332.10 C 271.55 309.73 271.36 287.35 271.49 264.98 C 271.65 287.38 271.59 309.79 271.52 332.19 C 303.49 332.18 335.45 332.18 367.41 332.19 C 365.32 355.37 363.29 378.57 361.21 401.76 C 278.63 401.75 196.05 401.87 113.47 401.84 C 115.46 424.48 117.55 447.11 119.53 469.74 C 198.12 469.70 276.71 469.81 355.29 469.87 C 352.76 499.19 349.94 528.50 347.51 557.83 C 323.10 564.88 298.43 571.10 273.94 577.89 C 270.98 579.17 268.04 577.52 265.16 576.85 C 242.00 570.64 218.87 564.30 195.68 558.16 C 194.02 540.07 192.49 521.98 190.80 503.90 C 168.07 503.90 145.33 503.87 122.60 503.91 C 125.80 539.49 128.91 575.08 132.16 610.65 C 178.58 623.40 224.92 636.41 271.32 649.18 C 271.68 625.77 271.18 602.36 271.54 578.95 C 271.45 602.43 271.74 625.92 271.43 649.40 C 318.01 636.53 364.58 623.66 411.13 610.68 C 421.44 495.15 431.73 379.62 442.14 264.10 C 328.51 263.96 214.87 264.33 101.24 264.14 Z" />
</g>
<g id="#f6f6f6ff">
<path fill="#f6f6f6" opacity="1.00" d=" M 101.24 264.14 C 214.87 264.33 328.51 263.96 442.14 264.10 C 431.73 379.62 421.44 495.15 411.13 610.68 C 364.58 623.66 318.01 636.53 271.43 649.40 C 271.74 625.92 271.45 602.43 271.54 578.95 C 271.18 602.36 271.68 625.77 271.32 649.18 C 224.92 636.41 178.58 623.40 132.16 610.65 C 128.91 575.08 125.80 539.49 122.60 503.91 C 145.33 503.87 168.07 503.90 190.80 503.90 C 192.49 521.98 194.02 540.07 195.68 558.16 C 218.87 564.30 242.00 570.64 265.16 576.85 C 268.04 577.52 270.98 579.17 273.94 577.89 C 298.43 571.10 323.10 564.88 347.51 557.83 C 349.94 528.50 352.76 499.19 355.29 469.87 C 276.71 469.81 198.12 469.70 119.53 469.74 C 117.55 447.11 115.46 424.48 113.47 401.84 C 196.05 401.87 278.63 401.75 361.21 401.76 C 363.29 378.57 365.32 355.37 367.41 332.19 C 335.45 332.18 303.49 332.18 271.52 332.19 C 271.59 309.79 271.65 287.38 271.49 264.98 C 271.36 287.35 271.55 309.73 271.40 332.10 C 216.71 332.03 162.02 332.26 107.34 331.99 C 105.38 309.37 103.19 286.76 101.24 264.14 Z" />
</g>
</svg>
